X: 1163
M: 2/4
L: 1/16
K: G
|:\
|:\
g2fe dBG2 | e2dc B4 | GAB2 cde2 | d2F2 G2 Bd |\
g2fe dBG2 | e2dc B4 | GAB2 cde2 | d2F2 G4 :|
four hands round and balance to the opposite,
four hands round and all chassez.

